!!!OTL: GEH IN DEN KREIS MEINE ROSA
!!!ARE: Europa, Mitteleuropa, Deutschland, Kassel
!!!SCT: K2184A
!!!YEM: Copyright 1995, estate of Helmut Schaffrath.
**kern
*ICvox
*Ivox
*M3/4
*k[]
*C:
{8G
8G
8G
=1
2c
8c
8d
=2
4c
8B}
{8G
8G
8G
=3
2d
8d
8e
=4
4d
8c}
{8G
8G
8G
=5
4.e
8d
8c
8B
=6
4.d}
{8A
8A
8A
=7
4d
4c
4B
=8
4c
8r}
==
!!!AGN: Kinder - Lied, Reigen, Tanz - Spiel, Brautwerbung
!!!ONB: ESAC (Essen Associative Code) Database: KINDER
!!!AMT: simple triple
!!!AIN: vox
!!!EED: Helmut Schaffrath
!!!EEV: 1.0
*-
